tools/download-figma-icons/icons/outlined-large/cash-out.svg

<svg width="64" height="64" viewBox="0 0 64 64" fill="none" xmlns="http://www.w3.org/2000/svg">
<path fill-rule="evenodd" clip-rule="evenodd" d="M4.03334 13.0667C4.03334 8.38955 13.4913 3.73334 25.2669 3.73334C37.0425 3.73334 46.5001 8.3895 46.5001 13.0667H49.5335C49.5335 5.39273 38.5797 0 25.2669 0C11.9541 0 1 5.39275 1 13.0667H4.03334ZM25.2667 22.4003C37.0423 22.4003 46.5003 17.7441 46.5003 13.0669H49.5336L49.5336 13.0672V24.928L49.5336 24.9464V27.8232C48.4288 27.6313 47.2924 27.5312 46.1327 27.5312C45.8737 27.5312 45.6159 27.5362 45.3593 27.5461C46.0958 26.6987 46.4968 25.8169 46.5003 24.9395V24.2666L46.5003 19.5828C42.3455 23.6199 34.3558 26.1336 25.2667 26.1336C16.1777 26.1336 8.18823 23.62 4.03349 19.5829V24.928C4.03349 29.2107 13.5093 33.6006 25.2667 33.6006C27.7928 33.6006 30.2135 33.398 32.4576 33.0373C31.1828 34.2628 30.0723 35.658 29.1624 37.1866C27.8931 37.2839 26.5917 37.334 25.2667 37.334C16.168 37.334 8.18513 34.9739 4.03347 31.1417V35.4665V36.1273C4.03347 40.4101 13.5093 44.8 25.2667 44.8C25.6985 44.8 26.1272 44.7941 26.5525 44.7825C26.4503 45.596 26.3977 46.425 26.3977 47.2663C26.3977 47.6875 26.4109 48.1056 26.4369 48.5203C26.049 48.529 25.6589 48.5333 25.2667 48.5333C16.168 48.5333 8.18513 46.1733 4.03347 42.3411V47.3272C4.03347 51.61 13.5093 55.9999 25.2667 55.9999C26.3246 55.9999 27.3641 55.9643 28.3798 55.8965C28.9971 57.1639 29.746 58.3553 30.6089 59.453C28.8883 59.6374 27.1002 59.7332 25.2667 59.7332C11.9358 59.7332 1.00013 54.667 1.00013 47.3272V36.1273V35.4665V24.2666H1.00015V13.0862L1.00013 13.0669H4.03347V13.0672H4.03349V13.0795C4.05046 17.7525 13.5017 22.4003 25.2667 22.4003Z" fill="black"/>
<path fill-rule="evenodd" clip-rule="evenodd" d="M46.1321 60.7611C53.5855 60.7611 59.6276 54.719 59.6276 47.2657C59.6276 39.8123 53.5855 33.7702 46.1321 33.7702C38.6788 33.7702 32.6366 39.8123 32.6366 47.2657C32.6366 54.719 38.6788 60.7611 46.1321 60.7611ZM46.1321 64.0001C55.3743 64.0001 62.8665 56.5078 62.8665 47.2657C62.8665 38.0235 55.3743 30.5312 46.1321 30.5312C36.89 30.5312 29.3977 38.0235 29.3977 47.2657C29.3977 56.5078 36.89 64.0001 46.1321 64.0001Z" fill="black"/>
<path fill-rule="evenodd" clip-rule="evenodd" d="M55.7664 47.7236C55.7664 47.7236 55.7664 47.7205 55.7664 47.7182L55.7671 47.716C55.7664 47.5711 55.738 47.433 55.6918 47.3048C55.6896 47.2987 55.6882 47.2934 55.6861 47.2873C55.632 47.1454 55.5517 47.018 55.4521 46.9125L49.9154 41.0063C49.4987 40.5617 48.8238 40.5617 48.407 41.0063C47.9902 41.4501 47.9902 42.1708 48.407 42.6154L52.1337 46.5909L39.5889 46.6333C39 46.6356 38.5235 47.147 38.5256 47.7751C38.5271 48.4033 39.005 48.9094 39.5924 48.9094H39.596L52.1166 48.8669L48.3088 52.9288C47.8921 53.3734 47.8921 54.0933 48.3088 54.5379C48.5172 54.7602 48.7896 54.8717 49.0627 54.8717C49.3358 54.8717 49.6089 54.7602 49.8173 54.5379L55.4549 48.5247L55.4556 48.5232C55.5538 48.4177 55.6327 48.2918 55.6868 48.1514C55.6889 48.1469 55.6896 48.1416 55.691 48.1363C55.7387 48.0081 55.7657 47.8692 55.7664 47.7236Z" fill="black"/>
</svg>

<svg xmlns="http://www.w3.org/2000/svg" width="64" height="64" fill="none" viewBox="0 0 64 64"><path fill="currentColor" fill-rule="evenodd" d="M4.033 13.067c0-4.677 9.458-9.334 21.234-9.334 11.775 0 21.233 4.656 21.233 9.334h3.033C49.534 5.393 38.58 0 25.268 0S1 5.393 1 13.067zM25.267 22.4c11.775 0 21.233-4.656 21.233-9.333h3.034v14.756a20 20 0 0 0-4.175-.277c.737-.847 1.138-1.73 1.141-2.607v-5.356c-4.154 4.037-12.144 6.55-21.233 6.55S8.188 23.62 4.033 19.584v5.345c0 4.283 9.476 8.673 21.234 8.673 2.526 0 4.947-.203 7.19-.564a19.8 19.8 0 0 0-3.295 4.15c-1.269.097-2.57.147-3.895.147-9.099 0-17.082-2.36-21.234-6.192v4.985c0 4.283 9.476 8.673 21.234 8.673q.647 0 1.285-.017a20 20 0 0 0-.115 3.737 52 52 0 0 1-1.17.013c-9.099 0-17.082-2.36-21.234-6.192v4.986C4.033 51.61 13.51 56 25.267 56q1.588-.001 3.113-.103a19.8 19.8 0 0 0 2.229 3.556c-1.72.184-3.509.28-5.342.28C11.936 59.733 1 54.667 1 47.327v-34.26h3.033v.012c.017 4.674 9.469 9.321 21.234 9.321" clip-rule="evenodd"/><path fill="currentColor" fill-rule="evenodd" d="M46.132 60.761c7.454 0 13.496-6.042 13.496-13.495 0-7.454-6.042-13.496-13.496-13.496-7.453 0-13.495 6.042-13.495 13.496 0 7.453 6.042 13.495 13.495 13.495m0 3.24c9.242 0 16.735-7.493 16.735-16.735S55.374 30.53 46.132 30.53s-16.734 7.493-16.734 16.735S36.89 64 46.132 64" clip-rule="evenodd"/><path fill="currentColor" fill-rule="evenodd" d="M55.766 47.724v-.006l.001-.002c0-.145-.029-.283-.075-.411l-.006-.018a1.1 1.1 0 0 0-.234-.374l-5.537-5.907a1.02 1.02 0 0 0-1.508 0 1.19 1.19 0 0 0 0 1.61l3.727 3.975-12.545.042c-.589.003-1.065.514-1.063 1.142.001.628.479 1.134 1.066 1.134h.004l12.52-.042-3.807 4.062a1.19 1.19 0 0 0 0 1.609c.208.222.48.334.754.334.273 0 .546-.112.754-.334l5.638-6.013v-.002q.15-.159.232-.372l.004-.015q.073-.193.075-.412" clip-rule="evenodd"/></svg>
